X: 456
T: A Visit To Ireland
R: jig
M: 6/8
K: Gmajor
|:Bc|ded dBG|Bdd def|gfe dcB|cAA ABc|
ded dBG|Bdd def|gfg ABc|BGG G:|
|:Bd|gfg aga|bag fed|gfe dcB|cAA ABd|
gfg aga|bag fed|gfg ABc|BGG G:|

